SVG_Azure_Grouped/Office365/O365 - API Facebook.svg

<?xml version="1.0" encoding="UTF-8" standalone="no"?>
<!-- Generated by Microsoft Visio, SVG Export O365 - API Facebook.svg Page-1 -->

<svg
   xmlns:dc="http://purl.org/dc/elements/1.1/"
   xmlns:cc="http://creativecommons.org/ns#"
   xmlns:rdf="http://www.w3.org/1999/02/22-rdf-syntax-ns#"
   xmlns:svg="http://www.w3.org/2000/svg"
   xmlns="http://www.w3.org/2000/svg"
   xmlns:sodipodi="http://sodipodi.sourceforge.net/DTD/sodipodi-0.dtd"
   xmlns:inkscape="http://www.inkscape.org/namespaces/inkscape"
   width="0.78739941in"
   height="0.78739941in"
   viewBox="0 0 56.692756 56.692898"
   xml:space="preserve"
   class="st4"
   version="1.1"
   id="svg41"
   sodipodi:docname="O365 - API Facebook.svg"
   style="font-size:12px;overflow:visible;color-interpolation-filters:sRGB;fill:none;fill-rule:evenodd;stroke-linecap:square;stroke-miterlimit:3"
   inkscape:version="0.92.5 (2060ec1f9f, 2020-04-08)"><metadata
   id="metadata47"><rdf:RDF><cc:Work
       rdf:about=""><dc:format>image/svg+xml</dc:format><dc:type
         rdf:resource="http://purl.org/dc/dcmitype/StillImage" /></cc:Work></rdf:RDF></metadata><defs
   id="defs45" /><sodipodi:namedview
   pagecolor="#ffffff"
   bordercolor="#666666"
   borderopacity="1"
   objecttolerance="10"
   gridtolerance="10"
   guidetolerance="10"
   inkscape:pageopacity="0"
   inkscape:pageshadow="2"
   inkscape:window-width="640"
   inkscape:window-height="480"
   id="namedview43"
   showgrid="false"
   inkscape:zoom="1.8365233"
   inkscape:cx="37.795184"
   inkscape:cy="18.897555"
   inkscape:window-x="0"
   inkscape:window-y="0"
   inkscape:window-maximized="0"
   inkscape:current-layer="svg41" />
	<style
   type="text/css"
   id="style2">
	<![CDATA[
		.st1 {fill:#3b5998;stroke:none;stroke-width:0.75}
		.st2 {fill:#ffffff;stroke:none;stroke-width:0.75}
		.st3 {fill:none;stroke:none;stroke-width:0.75}
		.st4 {fill:none;fill-rule:evenodd;font-size:12px;overflow:visible;stroke-linecap:square;stroke-miterlimit:3}
	]]>
	</style>

	<g
   id="g39"
   transform="translate(-5.6693772,-5.6693014)">
		<title
   id="title4">Page-1</title>
		<g
   id="group21030-1"
   transform="translate(5.66929,-34.0157)">
			<title
   id="title6">O365 - API Facebook.21030</title>
			<g
   id="group21031-2">
				<title
   id="title8">Page-1</title>
				<g
   id="group21032-3">
					<title
   id="title10">Power Automate API: Facebook</title>
					<g
   id="group21033-4">
						<title
   id="title12">rect5918</title>
						<g
   id="shape21034-5">
							<title
   id="title14">Sheet.21034</title>
							<rect
   x="0"
   y="39.685001"
   width="56.692902"
   height="56.692902"
   class="st1"
   id="rect16"
   style="fill:#3b5998;stroke:none;stroke-width:0.75" />
						</g>
					</g>
					<g
   id="group21035-7"
   transform="translate(9.79135,-9.43024)">
						<title
   id="title20">path5920</title>
						<g
   id="shape21036-8">
							<title
   id="title22">Sheet.21036</title>
							<path
   d="M 34.45,59.75 H 2.05 A 2.05497,2.05497 -180 0 0 0,61.8 v 32.53 a 2.05497,2.05497 -180 0 0 2.05,2.05 H 19.58 V 82.11 h -4.71 v -5.56 h 4.71 v -3.99 c 0,-4.71 2.9,-7.25 7.14,-7.25 l 4.22,0.25 v 4.95 h -2.9 c -2.29,0 -2.78,1.09 -2.78,2.66 v 3.51 h 5.44 l -0.73,5.56 h -4.71 v 14.14 h 9.31 a 2.05497,2.05497 -180 0 0 2.05,-2.05 V 61.68 a 2.05497,2.05497 -180 0 0 -2.17,-1.93 z"
   class="st2"
   id="path24"
   inkscape:connector-curvature="0"
   style="fill:#ffffff;stroke:none;stroke-width:0.75" />
						</g>
					</g>
					<g
   id="group21037-10"
   transform="translate(5.19791,-5.01643)">
						<title
   id="title28">rect5922</title>
						<g
   id="shape21038-11">
							<title
   id="title30">Sheet.21038</title>
							<rect
   x="0"
   y="50.745499"
   width="45.692902"
   height="45.632401"
   class="st3"
   id="rect32"
   style="fill:none;stroke:none;stroke-width:0.75" />
						</g>
					</g>
				</g>
			</g>
		</g>
	</g>
</svg>

<?xml version="1.0" encoding="UTF-8" standalone="no"?>
<!DOCTYPE svg PUBLIC "-//W3C//DTD SVG 1.1//EN" "http://www.w3.org/Graphics/SVG/1.1/DTD/svg11.dtd">
<!-- Generated by Microsoft Visio, SVG Export O365 - API Facebook.svg Page-1 -->
<svg xmlns="http://www.w3.org/2000/svg" xmlns:xlink="http://www.w3.org/1999/xlink" xmlns:ev="http://www.w3.org/2001/xml-events"
		width="0.944882in" height="1.33858in" viewBox="0 0 68.0315 96.378" xml:space="preserve" color-interpolation-filters="sRGB"
		class="st4">
	<style type="text/css">
	<![CDATA[
		.st1 {fill:#3b5998;stroke:none;stroke-width:0.75}
		.st2 {fill:#ffffff;stroke:none;stroke-width:0.75}
		.st3 {fill:none;stroke:none;stroke-width:0.75}
		.st4 {fill:none;fill-rule:evenodd;font-size:12px;overflow:visible;stroke-linecap:square;stroke-miterlimit:3}
	]]>
	</style>

	<g>
		<title>Page-1</title>
		<g id="group20564-1" transform="translate(5.66929,-34.0157)">
			<title>O365 - API Facebook.20564</title>
			<g id="group20565-2">
				<title>Page-1</title>
				<g id="group20566-3">
					<title>Power Automate API: Facebook</title>
					<g id="group20567-4">
						<title>rect5918</title>
						<g id="shape20568-5">
							<title>Sheet.20568</title>
							<rect x="0" y="39.685" width="56.6929" height="56.6929" class="st1"/>
						</g>
					</g>
					<g id="group20569-7" transform="translate(9.79135,-9.43024)">
						<title>path5920</title>
						<g id="shape20570-8">
							<title>Sheet.20570</title>
							<path d="M34.45 59.75 L2.05 59.75 A2.05497 2.05497 -180 0 0 0 61.8 L0 94.33 A2.05497 2.05497 -180 0 0
										 2.05 96.38 L19.58 96.38 L19.58 82.11 L14.87 82.11 L14.87 76.55 L19.58 76.55 L19.58 72.56
										 C19.58 67.85 22.48 65.31 26.72 65.31 L30.94 65.56 L30.94 70.51 L28.04 70.51 C25.75 70.51
										 25.26 71.6 25.26 73.17 L25.26 76.68 L30.7 76.68 L29.97 82.24 L25.26 82.24 L25.26 96.38 L34.57
										 96.38 A2.05497 2.05497 -180 0 0 36.62 94.33 L36.62 61.68 A2.05497 2.05497 -180 0 0 34.45
										 59.75 Z" class="st2"/>
						</g>
					</g>
					<g id="group20571-10" transform="translate(5.19791,-5.01643)">
						<title>rect5922</title>
						<g id="shape20572-11">
							<title>Sheet.20572</title>
							<rect x="0" y="50.7455" width="45.6929" height="45.6324" class="st3"/>
						</g>
					</g>
				</g>
			</g>
		</g>
	</g>
</svg>
